flaticon/emoticons/happy-4.svg

<svg xmlns="http://www.w3.org/2000/svg" width="32" height="32" viewBox="0 0 24 24">
    <path d="M 23.917969 10.625 C 23.757812 9.949219 23.371094 9.363281 22.886719 9.066406 C 22.5625 8.867188 22.214844 8.804688 21.882812 8.882812 C 21.808594 8.898438 21.734375 8.925781 21.664062 8.960938 C 20.730469 6.6875 19.273438 5.214844 17.773438 4.265625 L 18.316406 3.179688 C 18.417969 2.980469 18.335938 2.742188 18.136719 2.640625 C 17.941406 2.542969 17.699219 2.625 17.601562 2.820312 L 17.082031 3.863281 C 16.835938 3.730469 16.589844 3.613281 16.347656 3.503906 L 16.738281 2.328125 C 16.808594 2.117188 16.695312 1.890625 16.484375 1.820312 C 16.273438 1.75 16.050781 1.863281 15.980469 2.074219 L 15.601562 3.210938 C 15.324219 3.113281 15.054688 3.027344 14.796875 2.953125 L 15.140625 1.925781 C 15.207031 1.714844 15.09375 1.488281 14.886719 1.421875 C 14.675781 1.351562 14.449219 1.464844 14.378906 1.671875 L 14.015625 2.761719 C 13.511719 2.65625 13.078125 2.597656 12.757812 2.566406 L 12.757812 1.800781 C 12.757812 1.578125 12.582031 1.398438 12.359375 1.398438 C 12.136719 1.398438 11.960938 1.578125 11.960938 1.800781 L 11.960938 2.539062 C 11.75 2.546875 11.382812 2.574219 10.90625 2.652344 L 10.753906 1.734375 C 10.71875 1.515625 10.511719 1.367188 10.292969 1.40625 C 10.074219 1.441406 9.929688 1.648438 9.964844 1.867188 L 10.121094 2.800781 C 9.691406 2.898438 9.21875 3.03125 8.71875 3.210938 L 8.339844 2.074219 C 8.269531 1.863281 8.042969 1.75 7.832031 1.820312 C 7.625 1.890625 7.511719 2.117188 7.582031 2.328125 L 7.972656 3.503906 C 7.628906 3.65625 7.277344 3.832031 6.925781 4.035156 L 6.316406 2.820312 C 6.21875 2.625 5.976562 2.542969 5.78125 2.640625 C 5.582031 2.742188 5.503906 2.980469 5.601562 3.179688 L 6.242188 4.460938 C 5.890625 4.699219 5.542969 4.972656 5.203125 5.277344 L 4.242188 4.316406 C 4.085938 4.160156 3.832031 4.160156 3.675781 4.316406 C 3.519531 4.472656 3.519531 4.726562 3.675781 4.882812 L 4.632812 5.835938 C 3.402344 7.148438 2.375 8.972656 1.902344 11.523438 C 1.894531 11.554688 1.890625 11.589844 1.886719 11.621094 C 1.785156 11.59375 1.679688 11.574219 1.574219 11.574219 C 0.691406 11.574219 0 12.527344 0 13.746094 C 0 14.960938 0.691406 15.914062 1.574219 15.914062 C 1.738281 15.914062 1.894531 15.875 2.046875 15.808594 C 2.328125 16.875 2.792969 17.878906 3.429688 18.757812 C 4.707031 20.519531 7.214844 22.601562 11.9375 22.601562 C 12.007812 22.601562 12.082031 22.601562 12.15625 22.597656 C 12.230469 22.601562 12.304688 22.601562 12.375 22.601562 C 17.097656 22.601562 19.605469 20.519531 20.882812 18.757812 C 22.035156 17.171875 22.621094 15.183594 22.574219 13.128906 C 22.589844 13.132812 22.601562 13.132812 22.617188 13.132812 C 22.707031 13.132812 22.796875 13.125 22.886719 13.101562 C 23.746094 12.898438 24.199219 11.808594 23.917969 10.625 Z M 1.871094 14.996094 C 1.789062 15.0625 1.6875 15.113281 1.574219 15.113281 C 1.207031 15.113281 0.800781 14.550781 0.800781 13.746094 C 0.800781 12.9375 1.207031 12.375 1.574219 12.375 C 1.640625 12.375 1.710938 12.394531 1.777344 12.429688 C 1.757812 12.644531 1.746094 12.855469 1.738281 13.066406 C 1.738281 13.082031 1.738281 13.097656 1.738281 13.113281 C 1.734375 13.289062 1.734375 13.464844 1.738281 13.636719 C 1.742188 13.695312 1.742188 13.75 1.746094 13.808594 C 1.75 13.949219 1.761719 14.089844 1.773438 14.226562 C 1.78125 14.289062 1.78125 14.347656 1.789062 14.40625 C 1.808594 14.578125 1.832031 14.753906 1.859375 14.921875 C 1.863281 14.945312 1.867188 14.972656 1.871094 14.996094 Z M 20.234375 18.289062 C 18.507812 20.667969 15.773438 21.851562 12.160156 21.800781 L 12.152344 21.800781 C 8.515625 21.84375 5.804688 20.667969 4.078125 18.289062 C 3.253906 17.152344 2.746094 15.785156 2.585938 14.34375 C 2.582031 14.3125 2.582031 14.28125 2.582031 14.25 C 2.558594 14.023438 2.542969 13.789062 2.539062 13.558594 C 2.539062 13.457031 2.539062 13.359375 2.539062 13.257812 C 2.542969 13.09375 2.546875 12.933594 2.558594 12.769531 C 2.566406 12.652344 2.574219 12.53125 2.585938 12.410156 C 2.613281 12.164062 2.644531 11.914062 2.6875 11.667969 C 3.128906 9.296875 4.0625 7.601562 5.183594 6.386719 L 5.675781 6.882812 C 5.753906 6.960938 5.855469 7 5.960938 7 C 6.0625 7 6.164062 6.960938 6.242188 6.882812 C 6.398438 6.726562 6.398438 6.472656 6.242188 6.316406 L 5.75 5.824219 C 6.023438 5.578125 6.304688 5.351562 6.589844 5.152344 L 6.800781 5.578125 C 6.871094 5.71875 7.011719 5.800781 7.160156 5.800781 C 7.21875 5.800781 7.28125 5.785156 7.339844 5.757812 C 7.535156 5.660156 7.617188 5.417969 7.515625 5.222656 L 7.265625 4.71875 C 7.582031 4.53125 7.902344 4.371094 8.214844 4.230469 L 8.378906 4.726562 C 8.4375 4.894531 8.589844 5 8.757812 5 C 8.800781 5 8.84375 4.992188 8.886719 4.980469 C 9.09375 4.910156 9.207031 4.683594 9.136719 4.472656 L 8.957031 3.933594 C 9.417969 3.769531 9.851562 3.652344 10.25 3.566406 L 10.363281 4.265625 C 10.398438 4.460938 10.566406 4.601562 10.757812 4.601562 C 10.78125 4.601562 10.800781 4.597656 10.824219 4.59375 C 11.042969 4.558594 11.191406 4.351562 11.152344 4.132812 L 11.035156 3.421875 C 11.445312 3.363281 11.765625 3.34375 11.960938 3.335938 L 11.960938 4.199219 C 11.960938 4.421875 12.136719 4.601562 12.359375 4.601562 C 12.582031 4.601562 12.757812 4.421875 12.757812 4.199219 L 12.757812 3.371094 C 13.027344 3.394531 13.367188 3.441406 13.765625 3.519531 L 13.582031 4.074219 C 13.511719 4.28125 13.625 4.507812 13.832031 4.578125 C 13.875 4.59375 13.917969 4.601562 13.960938 4.601562 C 14.128906 4.601562 14.28125 4.492188 14.339844 4.328125 L 14.546875 3.699219 C 14.804688 3.769531 15.074219 3.855469 15.351562 3.953125 L 15.179688 4.472656 C 15.109375 4.683594 15.222656 4.910156 15.433594 4.980469 C 15.476562 4.992188 15.515625 5 15.558594 5 C 15.726562 5 15.882812 4.894531 15.9375 4.726562 L 16.097656 4.253906 C 16.167969 4.285156 16.238281 4.3125 16.308594 4.347656 C 16.453125 4.414062 16.59375 4.488281 16.730469 4.5625 L 16.402344 5.222656 C 16.300781 5.417969 16.382812 5.660156 16.578125 5.757812 C 16.636719 5.785156 16.699219 5.800781 16.757812 5.800781 C 16.90625 5.800781 17.046875 5.71875 17.117188 5.578125 L 17.421875 4.96875 C 19.089844 6.042969 20.300781 7.574219 21.039062 9.539062 L 21.035156 9.542969 L 21.109375 9.746094 C 21.21875 10.054688 21.3125 10.359375 21.398438 10.667969 C 21.402344 10.6875 21.40625 10.707031 21.410156 10.726562 C 21.492188 11.035156 21.566406 11.347656 21.625 11.667969 C 21.671875 11.929688 21.703125 12.195312 21.730469 12.457031 C 21.734375 12.507812 21.742188 12.558594 21.746094 12.609375 C 21.914062 14.675781 21.386719 16.703125 20.234375 18.289062 Z M 22.699219 12.324219 C 22.644531 12.335938 22.585938 12.335938 22.523438 12.324219 C 22.523438 12.308594 22.519531 12.296875 22.519531 12.28125 C 22.492188 12.03125 22.457031 11.777344 22.410156 11.527344 C 22.410156 11.523438 22.410156 11.523438 22.410156 11.523438 C 22.410156 11.515625 22.410156 11.511719 22.40625 11.507812 C 22.351562 11.203125 22.285156 10.914062 22.214844 10.628906 C 22.207031 10.597656 22.195312 10.566406 22.1875 10.535156 C 22.117188 10.257812 22.035156 9.992188 21.949219 9.734375 C 21.949219 9.726562 21.949219 9.722656 21.945312 9.714844 C 21.984375 9.6875 22.027344 9.667969 22.070312 9.660156 C 22.222656 9.621094 22.371094 9.6875 22.46875 9.746094 C 22.769531 9.933594 23.027344 10.339844 23.140625 10.8125 C 23.324219 11.597656 23.058594 12.238281 22.699219 12.324219 Z M 22.699219 12.324219"/>
    <path d="M17.597656 15.398438L7.203125 15.398438C6.984375 15.398438 6.804688 15.589844 6.804688 15.8125 6.804688 17.507812 7.761719 19.070312 9.246094 19.792969 10.203125 20.261719 11.292969 20.507812 12.398438 20.507812 13.5 20.507812 14.59375 20.261719 15.550781 19.796875 17.042969 19.070312 18.003906 17.503906 18 15.796875 18 15.578125 17.820312 15.398438 17.597656 15.398438zM15.203125 19.078125C13.5 19.902344 11.292969 19.902344 9.597656 19.074219 9.46875 19.015625 9.347656 18.941406 9.230469 18.867188 9.417969 18.347656 10.691406 17.984375 12.402344 17.984375 14.109375 17.984375 15.382812 18.347656 15.578125 18.863281 15.457031 18.941406 15.332031 19.011719 15.203125 19.078125zM16.199219 18.335938C15.714844 17.605469 14.371094 17.183594 12.402344 17.183594 10.433594 17.183594 9.089844 17.605469 8.605469 18.339844 8.066406 17.765625 7.710938 17.011719 7.625 16.199219L17.179688 16.199219C17.09375 17.011719 16.742188 17.761719 16.199219 18.335938zM14.800781 6.601562C13.359375 6.601562 12.121094 7.449219 11.542969 8.671875 11.042969 7.90625 10.179688 7.398438 9.199219 7.398438 7.65625 7.398438 6.398438 8.65625 6.398438 10.199219 6.398438 11.742188 7.65625 13 9.199219 13 10.179688 13 11.042969 12.492188 11.542969 11.726562 12.121094 12.949219 13.359375 13.800781 14.800781 13.800781 16.785156 13.800781 18.398438 12.183594 18.398438 10.199219 18.398438 8.214844 16.785156 6.601562 14.800781 6.601562zM14.800781 7.398438C16.066406 7.398438 17.136719 8.246094 17.480469 9.398438L12.117188 9.398438C12.460938 8.246094 13.535156 7.398438 14.800781 7.398438zM9.199219 8.199219C10.019531 8.199219 10.71875 8.695312 11.03125 9.398438L7.371094 9.398438C7.679688 8.695312 8.382812 8.199219 9.199219 8.199219zM9.199219 12.199219C8.097656 12.199219 7.199219 11.300781 7.199219 10.199219L11.199219 10.199219C11.199219 11.300781 10.300781 12.199219 9.199219 12.199219zM14.800781 13C13.257812 13 12 11.742188 12 10.199219L17.597656 10.199219C17.597656 11.742188 16.34375 13 14.800781 13zM14.800781 13"/>
    <path d="M10 11C10 11.21875 9.820312 11.398438 9.601562 11.398438 9.378906 11.398438 9.199219 11.21875 9.199219 11 9.199219 10.777344 9.378906 10.597656 9.601562 10.597656 9.820312 10.597656 10 10.777344 10 11zM14.398438 11.199219C14.398438 11.53125 14.132812 11.800781 13.800781 11.800781 13.46875 11.800781 13.199219 11.53125 13.199219 11.199219 13.199219 10.867188 13.46875 10.597656 13.800781 10.597656 14.132812 10.597656 14.398438 10.867188 14.398438 11.199219zM14.398438 11.199219"/>
</svg>

<svg xmlns="http://www.w3.org/2000/svg" width="32" height="32" viewBox="0 0 24 24">
    <path d="M23.918 10.625c-.16-.676-.547-1.262-1.031-1.559-.325-.199-.672-.261-1.004-.183a.916.916 0 0 0-.219.078c-.934-2.274-2.39-3.746-3.89-4.695l.542-1.086a.4.4 0 1 0-.714-.36l-.52 1.043c-.246-.133-.492-.25-.734-.36l.39-1.175a.4.4 0 0 0-.254-.508.396.396 0 0 0-.504.254l-.378 1.137a14.542 14.542 0 0 0-.805-.258l.344-1.027a.401.401 0 0 0-.762-.254l-.363 1.09a11.811 11.811 0 0 0-1.258-.196v-.765a.398.398 0 1 0-.797 0v.738c-.211.008-.578.035-1.055.113l-.152-.918a.396.396 0 0 0-.461-.328.4.4 0 0 0-.328.461l.156.934c-.43.097-.902.23-1.402.41l-.38-1.137a.4.4 0 0 0-.507-.254.402.402 0 0 0-.25.508l.39 1.176c-.343.152-.695.328-1.046.531l-.61-1.215a.402.402 0 0 0-.535-.18.403.403 0 0 0-.18.54l.641 1.28c-.351.24-.699.513-1.039.817l-.96-.96a.4.4 0 0 0-.567.566l.957.953c-1.23 1.312-2.258 3.137-2.73 5.687-.008.032-.012.067-.016.098a1.21 1.21 0 0 0-.313-.047c-.883 0-1.574.953-1.574 2.172 0 1.215.691 2.168 1.574 2.168.164 0 .32-.039.473-.105a8.885 8.885 0 0 0 1.383 2.949c1.277 1.762 3.785 3.844 8.508 3.844.07 0 .144 0 .218-.004.074.004.149.004.219.004 4.723 0 7.23-2.082 8.508-3.844 1.152-1.586 1.738-3.574 1.691-5.63.016.005.028.005.043.005.09 0 .18-.008.27-.031.86-.204 1.312-1.293 1.031-2.477zM1.871 14.996a.477.477 0 0 1-.297.117c-.367 0-.773-.562-.773-1.367 0-.809.406-1.371.773-1.371a.44.44 0 0 1 .203.055c-.02.215-.03.425-.039.636v.047c-.004.176-.004.352 0 .524.004.058.004.113.008.172.004.14.016.28.027.418.008.062.008.12.016.18.02.171.043.347.07.515l.012.074zm18.363 3.293c-1.726 2.379-4.46 3.563-8.074 3.512h-.008c-3.636.043-6.347-1.133-8.074-3.512-.824-1.137-1.332-2.504-1.492-3.945-.004-.031-.004-.063-.004-.094a8.11 8.11 0 0 1-.043-.691v-.301a10.2 10.2 0 0 1 .02-.488c.007-.118.015-.239.027-.36.027-.246.059-.496.102-.742.44-2.371 1.374-4.066 2.496-5.281l.492.496a.399.399 0 0 0 .566 0 .4.4 0 0 0 0-.567l-.492-.492c.273-.246.555-.472.84-.672l.21.426a.4.4 0 0 0 .54.18.397.397 0 0 0 .176-.535l-.25-.504c.316-.188.636-.348.949-.489l.164.497a.401.401 0 0 0 .508.253.402.402 0 0 0 .25-.507l-.18-.54c.461-.163.895-.28 1.293-.367l.113.7a.405.405 0 0 0 .395.336c.023 0 .043-.004.066-.008a.396.396 0 0 0 .328-.461l-.117-.711c.41-.059.73-.078.926-.086v.863a.398.398 0 1 0 .797 0v-.828c.27.024.61.07 1.008.149l-.184.554a.4.4 0 0 0 .25.504.375.375 0 0 0 .129.024c.168 0 .32-.11.379-.274l.207-.629c.258.07.527.156.805.254l-.172.52a.4.4 0 0 0 .379.527.397.397 0 0 0 .379-.273l.16-.473c.07.031.14.059.21.094.145.066.286.14.422.215l-.328.66a.397.397 0 0 0 .356.578.4.4 0 0 0 .36-.223l.304-.61C19.09 6.044 20.3 7.575 21.039 9.54l-.004.004.074.203c.11.309.203.613.29.922l.011.059c.082.308.156.62.215.941.047.262.078.527.105.789.004.05.012.102.016.152.168 2.067-.36 4.094-1.512 5.68zm2.465-5.965a.443.443 0 0 1-.176 0c0-.015-.003-.027-.003-.043-.028-.25-.063-.504-.11-.754v-.004c0-.007 0-.011-.004-.015a13.888 13.888 0 0 0-.191-.88c-.008-.03-.02-.062-.027-.093-.07-.277-.153-.543-.239-.8 0-.008 0-.012-.004-.02a.322.322 0 0 1 .125-.055c.153-.039.301.027.399.086.3.188.558.594.672 1.066.183.786-.082 1.426-.442 1.512zm0 0"/>
    <path d="M17.598 15.398H7.203a.411.411 0 0 0-.398.415c0 1.695.957 3.257 2.441 3.98a7.2 7.2 0 0 0 3.152.715 7.264 7.264 0 0 0 3.153-.711c1.492-.727 2.453-2.293 2.449-4a.401.401 0 0 0-.402-.399zm-2.395 3.68c-1.703.824-3.91.824-5.605-.004a3.062 3.062 0 0 1-.368-.207c.188-.52 1.461-.883 3.172-.883 1.707 0 2.98.364 3.176.88a4.433 4.433 0 0 1-.375.214zm.996-.742c-.484-.73-1.828-1.152-3.797-1.152-1.968 0-3.312.421-3.797 1.156a3.71 3.71 0 0 1-.98-2.14h9.555a3.675 3.675 0 0 1-.98 2.136zm0 0M14.8 6.602c-1.44 0-2.679.847-3.257 2.07a2.797 2.797 0 0 0-2.344-1.274A2.806 2.806 0 0 0 6.4 10.2c0 1.543 1.257 2.801 2.8 2.801.98 0 1.844-.508 2.344-1.273a3.605 3.605 0 0 0 3.258 2.074 3.604 3.604 0 0 0 3.597-3.602 3.6 3.6 0 0 0-3.597-3.597zm0 .796c1.266 0 2.337.848 2.68 2h-5.363a2.808 2.808 0 0 1 2.684-2zM9.2 8.2c.82 0 1.519.496 1.831 1.2h-3.66a2.001 2.001 0 0 1 1.828-1.2zm0 4c-1.102 0-2-.898-2-2h4c0 1.102-.9 2-2 2zm5.6.801a2.806 2.806 0 0 1-2.8-2.8h5.598c0 1.542-1.254 2.8-2.797 2.8zm0 0"/>
    <path d="M10 11a.4.4 0 1 1-.8-.003.4.4 0 0 1 .8.003zm0 0M14.398 11.2a.598.598 0 1 1-1.199 0c0-.333.27-.602.602-.602.332 0 .597.27.597.601zm0 0"/>
</svg>
